img/flower-2.svg

<svg width="389" height="552" fill="none" xmlns="http://www.w3.org/2000/svg"><path d="M145 233.433c12.11 31.124 5.315 63.526 20.301 92.054 14.987 28.528 31.86 39.421 53.199 45.446 42.5 12 51.311 11.821 86.5 23.5 10.165 3.374 29.33 26.929 29.33 26.929l4.021-.675C320.619 370.519 302.269 319.045 262 282.933c-10.736-9.628-36.181-20.606-56.836-28.846C175.129 242.104 145 233.433 145 233.433z" fill="#A9B65C"/><path d="M224.964 185.044l.868-3.537 2.468 1.383 1.112-.719 3.58.665 8.761 6.247 12.367 10.613 10.917 10.807 12.733 14.841 20.002 30.979 4.312 9.119.555 1.316c-2.278-14.43-3.312-28.545-1.724-41.784.816-6.797 5.475-17.118 9.411-25.166C316.051 188.104 322.564 178 322.564 178c1.729 8.116 4.66 15.581 7.543 22.927 3.362 8.561 6.659 16.96 7.916 26.039 2.335 16.866.077 25.476-4.562 32.575-3.913 5.987-6.623 9.731-8.997 13.011-3.233 4.466-5.844 8.073-10.023 15.313-.786 1.362-1.276 4.36-1.581 7.575l.059.204 3.715 19.176 1.247 17.794L321 355s8.693 33.36 19.5 56.5c10.806 23.14 35.682 54.319 35.682 54.319l-2.102 2.845-3.58-.664-2.8-2.459s-24.172-30.318-35.2-54.041c-11.029-23.723-22-65-22-65l-2.667-28.229-3.81-16.883-5.601-17.215-5.912-14.037-6.007-11.745-16.273-25.203-8.231-10.308-11.378-12.741-10.916-10.806-11.134-9.923-3.607-4.366z" fill="#A9B65C"/><path d="M168.862 109.065l3.416-2.206 3.77-.721 5.76 1.424 4.739 2.655 6.561 5.478 8.217 8.981 8.666 11.549 1.989 2.144-2.218-9.997-.656-7.578-.229-7.853.625-8.405 2.167-8.83 2.281-4.901 4.083-4.923 4.27-2.758 3.51-1.124 5.239.617 4.739 2.655 3.811 4.968 2.531 5.795 1.677 6.347 1.27 9.467.323 8.935-.959 9.764-1.333 5.433-2.76 9.784-4.563 9.804 8.395-1.992 8.916-1.186 8.321-.231 9.624 1.786 6.114 2.91 3.884 3.206 2.604 4.034.354 1.486-.146 3.523-.833 3.396-3.656 4.647-5.551 3.585-4.364 1.675-6.427 1.293-8.061.634-10.384-.152-9.103-.979-6.926 3.33.729 5.816.229 7.854-.813 6.239-2.26 7.747-4.75 7.639-4.177 3.841-3.843 2.482-3.083.848-3.864-.362-3.791-2.124-4.166-6.454-1.937-6.75-.656-7.577.459-7.726 1.5-6.112 1.927-6.389.833-3.395-2.395.975-7.541 1.441-10.978.803-7.04-.596-5.239-.617-5.76-1.424-7.915-2.889-7.062-3.441-6.04-4.672-4.073-5.371-1.843-5.667.146-3.524 1.594-5.03 3.489-3.968 3.416-2.206 2.396-.975 5.739-1.421 7.207-.082 5.926.744 7.822 1.807 7.655 2.486 10.071 4.354-9.165-9.512-7.79-9.256-4.426-6.857-2.885-7.281-.375-4.33.834-3.396 2.208-3.141z" fill="#F8F0DD"/><path d="M211.389 154.755l-4.281 2.765-2.977 4.786-.48 4.893.71 2.979 2.088 3.235 4.324 2.937 5.252.619 2.663-.573 4.543-2.361 3.238-4.382.909-5.17-.804-4.064-1.828-2.83-3.634-2.81-3.707-1.043-4.042.318-1.974.701z" fill="#E7637A"/></svg>

<svg width="389" height="552" viewBox="0 0 389 552" fill="none" xmlns="http://www.w3.org/2000/svg">
<path d="M145 233.433C157.11 264.557 150.315 296.959 165.301 325.487C180.288 354.015 197.161 364.908 218.5 370.933C261 382.933 269.811 382.754 305 394.433C315.165 397.807 334.33 421.362 334.33 421.362L338.351 420.687C320.619 370.519 302.269 319.045 262 282.933C251.264 273.305 225.819 262.327 205.164 254.087C175.129 242.104 145 233.433 145 233.433Z" fill="#A9B65C"/>
<path d="M224.964 185.044L225.832 181.507L228.3 182.89L229.412 182.171L232.992 182.836L241.753 189.083L254.12 199.696L265.037 210.503L277.77 225.344L297.772 256.323L302.084 265.442L302.639 266.758C300.361 252.328 299.327 238.213 300.915 224.974C301.731 218.177 306.39 207.856 310.326 199.808C316.051 188.104 322.564 178 322.564 178C324.293 186.116 327.224 193.581 330.107 200.927C333.469 209.488 336.766 217.887 338.023 226.966C340.358 243.832 338.1 252.442 333.461 259.541C329.548 265.528 326.838 269.272 324.464 272.552C321.231 277.018 318.62 280.625 314.441 287.865C313.655 289.227 313.165 292.225 312.86 295.44L312.919 295.644L316.634 314.82L317.881 332.614L321 355C321 355 329.693 388.36 340.5 411.5C351.306 434.64 376.182 465.819 376.182 465.819L374.08 468.664L370.5 468L367.7 465.541C367.7 465.541 343.528 435.223 332.5 411.5C321.471 387.777 310.5 346.5 310.5 346.5L307.833 318.271L304.023 301.388L298.422 284.173L292.51 270.136L286.503 258.391L270.23 233.188L261.999 222.88L250.621 210.139L239.705 199.333L228.571 189.41L224.964 185.044Z" fill="#A9B65C"/>
<path d="M168.862 109.065L172.278 106.859L176.048 106.138L181.808 107.562L186.547 110.217L193.108 115.695L201.325 124.676L209.991 136.225L211.98 138.369L209.762 128.372L209.106 120.794L208.877 112.941L209.502 104.536L211.669 95.7069L213.95 90.8046L218.033 85.8817L222.303 83.1238L225.813 82L231.052 82.6172L235.791 85.2718L239.602 90.2397L242.133 96.0349L243.81 102.382L245.08 111.849L245.403 120.784L244.444 130.548L243.111 135.981L240.351 145.765L235.788 155.569L244.183 153.577L253.099 152.391L261.42 152.16L271.044 153.946L277.158 156.856L281.042 160.062L283.646 164.096L284 165.582L283.854 169.105L283.021 172.501L279.365 177.148L273.814 180.733L269.45 182.408L263.023 183.701L254.962 184.335L244.578 184.183L235.475 183.204L228.549 186.534L229.278 192.35L229.507 200.204L228.694 206.443L226.434 214.19L221.684 221.829L217.507 225.67L213.664 228.152L210.581 229L206.717 228.638L202.926 226.514L198.76 220.06L196.823 213.31L196.167 205.733L196.626 198.007L198.126 191.895L200.053 185.506L200.886 182.111L198.491 183.086L190.95 184.527L179.972 185.33L172.932 184.734L167.693 184.117L161.933 182.693L154.018 179.804L146.956 176.363L140.916 171.691L136.843 166.32L135 160.653L135.146 157.129L136.74 152.099L140.229 148.131L143.645 145.925L146.041 144.95L151.78 143.529L158.987 143.447L164.913 144.191L172.735 145.998L180.39 148.484L190.461 152.838L181.296 143.326L173.506 134.07L169.08 127.213L166.195 119.932L165.82 115.602L166.654 112.206L168.862 109.065Z" fill="#F8F0DD"/>
<path d="M211.389 154.755L207.108 157.52L204.131 162.306L203.651 167.199L204.361 170.178L206.449 173.413L210.773 176.35L216.025 176.969L218.688 176.396L223.231 174.035L226.469 169.653L227.378 164.483L226.574 160.419L224.746 157.589L221.112 154.779L217.405 153.736L213.363 154.054L211.389 154.755Z" fill="#E7637A"/>
</svg>
